blockchains/ethereum/assets/0x05f4a42e251f2d52b8ed15E9FEdAacFcEF1FAD27/logo.svg

<svg fill="none" height="250" viewBox="0 0 250 250" width="250" xmlns="http://www.w3.org/2000/svg"><path d="m218.263 103.305-35.997 16.049-95.4931 48.606 95.4931 45.913v-75.89l35.997-16.222v112.116l-35.997 16.05-140.6032-67.293v-35.767l97.3282-47.7467-97.3282-46.7724v-36.2829l36.5696-16.049375 140.0306 67.407175z" fill="#000"/><path d="m41.6628 16.0651 140.6032 67.4077 35.997-16.0495-140.0306-67.407675z" fill="#087a8e"/><path d="m182.268 83.3228 35.997-16.0494v35.8816l-35.997 16.049z" fill="#2a8e97"/><path d="m41.6628 16.0938v36.2829l97.3282 46.7724-97.3282 47.7469v35.767l140.6032 67.293v-35.997l-95.4931-45.97 95.4931-48.606v-35.882z" fill="#49c1bf"/><path d="m182.268 249.689 35.997-16.049v-112.117l-35.997 16.222z" fill="#2a8e97"/></svg>

<svg width="250" height="250" viewBox="0 0 250 250" fill="none" xmlns="http://www.w3.org/2000/svg">
<path d="M218.263 103.305L182.266 119.354L86.7729 167.96L182.266 213.873V137.983L218.263 121.761V233.877L182.266 249.927L41.6628 182.634V146.867L138.991 99.1203L41.6628 52.3479V16.065L78.2324 0.015625L218.263 67.4228V103.305Z" fill="black"/>
<path d="M41.6628 16.0651L182.266 83.4728L218.263 67.4233L78.2324 0.015625L41.6628 16.0651Z" fill="#087A8E"/>
<path d="M182.268 83.3228L218.265 67.2734V103.155L182.268 119.204V83.3228Z" fill="#2A8E97"/>
<path d="M41.6628 16.0938V52.3767L138.991 99.1491L41.6628 146.896V182.663L182.266 249.956V213.959L86.7729 167.989L182.266 119.383V83.501L41.6628 16.0938Z" fill="#49C1BF"/>
<path d="M182.268 249.689L218.265 233.64V121.523L182.268 137.745V249.689Z" fill="#2A8E97"/>
</svg>
